X:211
T:The Coming Of Spring
Z:robin.beech@mcgill.ca
S:The playing of Lisa Gilbert
R:jig
M:6/8
L:1/8
K:Edor
|: BEE B2 A | (3Bcd B BAG | FEF DFA | dfe dBA |
BEE B2 A | Bef gfe | dBG FGA |1 BGE E2F :|2 BGE E2 F |:
GEF G2 A | B2 A Bec | dAA BAG | (3FGA F DEF |
GFE FGA | Bef gfe | dBG FGA |1 BGE E2 F :|2 BGE Eef |:
g2e efe | Beg bag | f2d dcd | AFA def |1
g2e efe | Beg bag | fed (3fga f | ge^d e2f :|2
g2e fed | Bec dfe | dBG FGA | BGE E2F |]
